X: 1190
T: An Cor Bealaigh
R: reel
M: 4/4
K: Gmajor
DG|:B2 DB c2 Bc|dGBd G2 AB|c2 dc BdcB|A2 AB A2 DG|
B2 DB c2 Bc|dGBd G2 FG|E2 c2 BAGF|A2 GF G2:|
dc|:B2 BA Ggfg|edce d2 dc|B2 BA GedB|A2 AB A2 dc|
B2 BA Ggfg|edce d2 Bc|dgfg ecAF|G2 GF G2:|

